X: 52
T: No_46_Tea_Dance_Song_(a).krn
N: Derived from No_46_Tea_Dance_Song_(a).krn
%%abc-version 2.0
%%abcx-abcm2ps-target-version 5.9.1 (29 Sep 2008)
%%abc-creator hum2abc beta
%%abcx-conversion-date 2019/03/15 08:36:49
%%humdrum-veritas 2281317686
%%humdrum-veritas-data 2828494914
%%linebreak <none>
%%barnumbers 0
L: 1/8
M: 2/4
%%staves {1 2}
V: 1 clef=bass
V: 2 clef=bass
K: E
[V:1] FE [I:setbarnb 1]| 
[V:2] z2 | 
[V:1] F2FE | 
[V:2] (3!accent!G,, z G,, (3!accent!G,, z G,, | 
[V:1] B,2FE | 
[V:2] z4 | 
[V:1] F2FE | 
[V:2] z4 | 
[V:1] B,2B,G, ]|:  
[V:2] z4 ]|:  
[V:1] B,2B,G, | 
[V:2] z4 | 
[V:1] F,3/B,/ B,G, | 
[V:2] z4 | 
[V:1] B,2B,G, | 
[V:2] z4 | 
[V:1] F,3/G,/F,2- | 
[V:2] z4 | 
[V:1] F,4 | 
[V:2] z4 | 
[V:1] z2F,2 | 
[V:2] z4 | 
[V:1] F,4 | 
[V:2] z4 | 
[V:1] E,3/F,/E,2 | 
[V:2] z4 | 
[V:1] F,3/G,/E,2 | 
[V:2] z4 | 
[V:1] B,,2B,,B,, | 
[V:2] z4 | 
[V:1] B,,B,, B,,B,, | 
[V:2] z4 | 
[V:1] [M:3/4]B,,3B, B,G, :|]  
[V:2] [M:3/4]z6 :|]  



